X: 21358
T: Kerry Jig, The
R: slide
M: 12/8
K: Adorian
|:A2 A AGE A2 A AGE|G2 G GED G3 E3|
A2 A ABc dBA G3|1 GBd dcB ~c3 ~B3:|2 GBd dcB ~c3 c2||
|:d|e2 e edc e3 g3|G2 G G2 A GED DEG|
A2 A ABc dBA G3|1 GBd dcB ~c3 c2:|2 GBd dcB ~c3 ~B3||

